X: 1999
T: As The Crow Flies
R: reel
M: 4/4
K: Gmixolydian
|:G2 GF DDCB,|CDCB, CB,CD|F2 FD CDFG|DC (3B,/C/B,/A, G,A,B,D|
DGGF D2 CB,|CDCB, CB,CD|F2 FD CDFG|DC (3B,/C/B,/A, G,4:|
|:G2 Ac d2 c2-|cAGD FG (3F/G/F/D|CDGD F2 D2-|DDAG FDCD|
G2 Ac d2 c2-|cAGD FG (3F/G/F/D|CDGD F2 A,C|DA,CD A,CDF:|

